X:1
T:the Misses Little's Fancy
T:the Misses Little's Fancy
T:George Jenkins (?-1806)
C:George Jenkins (?-1806)
L:1/8
M:6/8
K:A
V:1 treble 
V:1
 A/4B/4c/4d/4 |"A" e3"D" f2 e |"A" eaf ecA |"E7" ecB"A" cBA |"Bm" FBB"E7" B2 c |"A" AcA"E7" BdB | %6
"A" cec"D" faf |"A" ecA E2 [CE] |"D" [DF]AA"A" [CEA]2 :: E |"A" CEE"Bm" DFF |"C#m" EGG"D" FAA | %12
"E7" GBB"F#m" Acc |"E7" dBB B3 |"A" AcA"E7" BdB |"A" cec"D" faf |"A" ecA"D" F2 E | %17
 FA[DA]"A" [CA]2 :| %18

